X:1
T:Polska efter G Stolpe
R:Polska
O:Torsker Gstrikland
S:G Stolpe
M:3/4
L:1/8
K:D
d2D3/E/ F3/G/|A/B/A/^G/ A3/B/ c3/A/|d3/c/ B3/A/ ^G3/A/|c/B/A/^G/ AAE2|
d2D3/E/ F3/G/|A/B/A/^G/ A3/B/ c3/A/|d3/c/ B3/A/ ^G3/A/|c/B/A/^G/ A2z2:|
A2f2a2|B2e3/d/ c3/B/|AA ff gg|B2e3/d/ c3/B/|
A^G Af ge|b/g/e/c/ d3/A/ G/F/E/D/|AA ff gg|B2e3/d/ c3/B/|
AA ff gg|BB cc dd|d/c/B/A/ GF ED|F/E/D/^C/ D2z2:|
